X: 40162
T: Tim O'Leary's
R: mazurka
M: 3/4
K: Amajor
cB|A3 E Ac|e4 ab|c'b a2 g2|a4 e2|
f2 de fg|a3 g af|ed ce a2|BE GB ec|
A3 E Ac|e4 ab|c'b a2 g2|a4 e2|
f2 de fa|e2 d2 B2|B2 A2 G2|1 A3 B:|2 A4 a2||
|:g2 eB eg|b2 g2 e2|c3 e ab|c'2 a2 e2|
f2 a2 d'2|c'2 a2 e2|b2 g2 e2|e2 d2 c2|
d2 Ad fa|c2 Ac ea|B2 g2 B2|G2 F2 E2|
FD FG A2|GE GA B2|c2 A2 G2|1 A4 a2:|2 A3 B||

